img/svgicons/arrow-right-akcent.svg

<svg width="19" height="20" viewBox="0 0 19 20" fill="none" xmlns="http://www.w3.org/2000/svg">
<path d="M1.31602 18.7842C0.672871 18.2214 0.607716 17.2438 1.17049 16.6007L12.3473 3.82761C12.4231 3.74104 12.3563 3.6061 12.2416 3.61375L1.8971 4.30319C1.04178 4.36019 0.302939 3.71138 0.248957 2.85586C0.195243 2.00461 0.840125 1.27025 1.69118 1.21353L16.5425 0.223714C17.1375 0.184059 17.652 0.634246 17.6916 1.22924L18.6764 16.0041C18.7358 16.8965 18.0606 17.6682 17.1682 17.7276C16.36 17.7815 15.6611 17.1705 15.6065 16.3624L14.9017 5.92851C14.8943 5.81864 14.7578 5.77253 14.6853 5.85541L3.49952 18.6386C2.93675 19.2818 1.95916 19.3469 1.31602 18.7842Z" fill="#11D081"/>
</svg>

<svg width="19" height="20" fill="none" xmlns="http://www.w3.org/2000/svg"><path d="M1.316 18.784a1.547 1.547 0 01-.146-2.183L12.347 3.828a.13.13 0 00-.105-.214l-10.345.69a1.548 1.548 0 11-.206-3.09l14.852-.99a1.08 1.08 0 011.149 1.005l.984 14.775a1.62 1.62 0 01-1.508 1.724 1.467 1.467 0 01-1.561-1.366L14.902 5.93a.124.124 0 00-.217-.074L3.5 18.64a1.547 1.547 0 01-2.184.145z" fill="#11D081"/></svg>
